Numix-GalliumOS/48/actions/zoom-fit-width.svg

<?xml version="1.0" encoding="UTF-8" standalone="no"?>
<svg
   xmlns:dc="http://purl.org/dc/elements/1.1/"
   xmlns:cc="http://creativecommons.org/ns#"
   xmlns:rdf="http://www.w3.org/1999/02/22-rdf-syntax-ns#"
   xmlns:svg="http://www.w3.org/2000/svg"
   xmlns="http://www.w3.org/2000/svg"
   xmlns:sodipodi="http://sodipodi.sourceforge.net/DTD/sodipodi-0.dtd"
   xmlns:inkscape="http://www.inkscape.org/namespaces/inkscape"
   width="48"
   height="48"
   viewBox="0 0 48 48"
   id="svg2"
   version="1.1"
   inkscape:version="0.91 r13725"
   sodipodi:docname="zoom-fit-width.svg">
  <metadata
     id="metadata16">
    <rdf:RDF>
      <cc:Work
         rdf:about="">
        <dc:format>image/svg+xml</dc:format>
        <dc:type
           rdf:resource="http://purl.org/dc/dcmitype/StillImage" />
        <dc:title></dc:title>
      </cc:Work>
    </rdf:RDF>
  </metadata>
  <defs
     id="defs14" />
  <sodipodi:namedview
     pagecolor="#ffffff"
     bordercolor="#666666"
     borderopacity="1"
     objecttolerance="10"
     gridtolerance="10"
     guidetolerance="10"
     inkscape:pageopacity="0"
     inkscape:pageshadow="2"
     inkscape:window-width="1366"
     inkscape:window-height="704"
     id="namedview12"
     showgrid="true"
     inkscape:zoom="11.313708"
     inkscape:cx="23.023915"
     inkscape:cy="24"
     inkscape:window-x="0"
     inkscape:window-y="27"
     inkscape:window-maximized="1"
     inkscape:current-layer="svg2">
    <inkscape:grid
       type="xygrid"
       id="grid4144" />
  </sodipodi:namedview>
  <path
     style="fill:#268bd2"
     d="M 10 4 L 38 4 C 41.273438 4 44 6.726562 44 10 L 44 38 C 44 41.265625 41.273438 44 38 44 L 10 44 C 6.726562 44 4 41.265625 4 38 L 4 10 C 4 6.726562 6.726562 4 10 4 Z "
     id="path4" />
  <g
     id="g4150">
    <g
       id="g6"
       style="fill-opacity:.902;fill:#fff">
      <path
         id="path10"
         d="M 16 16 L 16 32 L 32 32 L 32 16 Z M 20 20 L 28 20 L 28 28 L 20 28 Z " />
    </g>
    <rect
       y="10"
       x="8"
       height="28"
       width="4"
       id="rect4146"
       style="opacity:1;fill:#ffffff;fill-opacity:0.90196078;stroke:none;stroke-width:1.5;stroke-linecap:round;stroke-linejoin:round;stroke-miterlimit:4;stroke-dasharray:none;stroke-opacity:1" />
    <rect
       style="opacity:1;fill:#ffffff;fill-opacity:0.90196078;stroke:none;stroke-width:1.5;stroke-linecap:round;stroke-linejoin:round;stroke-miterlimit:4;stroke-dasharray:none;stroke-opacity:1"
       id="rect4148"
       width="4"
       height="28"
       x="36"
       y="10" />
  </g>
</svg>

<svg xmlns="http://www.w3.org/2000/svg" viewBox="0 0 48 48">
 <path d="m 10 4 l 28 0 c 3.273 0 6 2.727 6 6 l 0 28 c 0 3.266 -2.727 6 -6 6 l -28 0 c -3.273 0 -6 -2.734 -6 -6 l 0 -28 c 0 -3.273 2.727 -6 6 -6 Z" style="fill:#268bd2"/>
 <g>
  <g style="fill:#fff;fill-opacity:0.902">
   <path d="m 16 16 l 0 16 l 16 0 l 0 -16 m -12 4 l 8 0 l 0 8 l -8 0 Z"/>
  </g>
  <rect y="10" x="8" height="28" width="4" style="fill:#fff;opacity:1;fill-opacity:0.902;stroke:none"/>
  <rect width="4" height="28" x="36" y="10" style="fill:#fff;opacity:1;fill-opacity:0.902;stroke:none"/>
 </g>
</svg>
